X:825
T:I'll Tell Me Ma
N:Also known as Come To The Show, Heel And Toe, The Heel And Toe , Heel Toe, Heel Toe Polks, I' Tell Me Ma, I'll Tell My Ma, My Aunt Jane. http://www.thesession.org/tunes/display/2434
O:Irland
M:2/4
L:1/8
R:Polka
K:D
A | "D"Ad f>f | gf f>g | "A7"fe e>f | "D"ed d>d |
Ad f>f | gf f>g | "A7"fe e>f | "D"ed d2 |
aa a<f | "G"gg g<e | "D"f>f fd | "A7"ec B<A |
"D"aa a<f | "G"gg g2 | "D"ff "A7"ef|"D"ed d2 |

(:musicend:)

(:music:)
